src/assets/mediaicons/linkedin.svg

<svg fill="none" height="30" viewBox="0 0 30 30" width="30" xmlns="http://www.w3.org/2000/svg"><g fill="#fff"><path d="m3.79599 0c.24955.049426.50229.0733418.74864.143495 1.50528.424107 2.54506 1.811225 2.57385 3.368945.03039 1.69483-1.22214 3.25574-2.94817 3.53635-1.11816.18176-2.11795-.09248-2.97057-.84184-.798226-.70153-1.19974-1.59917-1.19974-2.65147.00159966-1.93399 1.48928-3.37372 3.20572-3.5299698.03999-.0031888.07998-.01594387.12157-.0255102z"/><path d="m15.8175 12.8556c.2544-.338.5151-.6489.8127-.9232 1.3133-1.2133 2.8553-1.96106 4.6326-2.19225 1.3981-.18176 2.777-.06537 4.0935.46875.9982.405 1.8812.9981 2.6426 1.7602.4111.413.7023.912.9662 1.4254.4319.8434.7855 1.7171.947 2.6578.0528.3062.088.6155.088.928v12.7901c0 .228 0 .2296-.2383.2296-1.8684 0-3.7368 0-5.6036 0-.248 0-.2528-.0032-.2496-.2535.0464-3.5315.0128-7.0631.0256-10.5947.0016-.558-.0656-1.1081-.2559-1.6358-.376-1.0459-1.1006-1.7379-2.1644-2.0472-1.2701-.3699-2.4987-.2344-3.6408.4432-.6927.4114-1.1102 1.0619-1.4013 1.7985-.2368.5963-.3327 1.2181-.3327 1.8559v10.1753c0 .1712-.0859.2573-.2576.2583-1.8476 0-3.6952 0-5.5412 0-.176 0-.2639-.0903-.2639-.271 0-6.4732 0-12.9448 0-19.4181 0-.0414.0016-.0829 0-.1243-.0032-.0941.0351-.1483.1375-.1419.0304.0016.0624 0 .0944 0h5.2453c.16 0 .2399.0808.2399.2423v2.3804c0 .0559-.0144.1132.0272.1898z"/><path d="m.451905 20.0111c0-3.2095 0-6.419 0-9.6285 0-.0462.004799-.094 0-.1403-.015997-.1451.038391-.212.191959-.1993.129572.0096.260744.0016.390316.0016h5.40045c.23355 0 .23515 0 .23515.2328v19.4755c0 .2423-.0048.2471-.24155.2471-1.91479 0-3.82958 0-5.742775 0-.231951 0-.231951 0-.231951-.236 0-3.2509 0-6.5019 0-9.7529z"/></g></svg>

<svg width="30" height="30" viewBox="0 0 30 30" fill="none" xmlns="http://www.w3.org/2000/svg">
<path d="M3.79599 0C4.04554 0.049426 4.29828 0.0733418 4.54463 0.143495C6.04991 0.567602 7.08969 1.95472 7.11848 3.51244C7.14887 5.20727 5.89634 6.76818 4.17031 7.04879C3.05215 7.23055 2.05236 6.95631 1.19974 6.20695C0.401514 5.50542 0 4.60778 0 3.55548C0.00159966 1.62149 1.48928 0.18176 3.20572 0.0255102C3.24571 0.0223214 3.2857 0.00956633 3.32729 0C3.48406 0 3.63922 0 3.79599 0Z" fill="white"/>
<path d="M15.8175 12.8556C16.0719 12.5176 16.3326 12.2067 16.6302 11.9324C17.9435 10.7191 19.4855 9.97134 21.2628 9.74015C22.6609 9.55839 24.0398 9.67478 25.3563 10.2089C26.3545 10.6139 27.2375 11.207 27.9989 11.9691C28.41 12.3821 28.7012 12.8811 28.9651 13.3945C29.397 14.2379 29.7506 15.1116 29.9121 16.0523C29.9649 16.3585 30.0001 16.6678 30.0001 16.9803C30.0001 21.2437 30.0001 25.5071 30.0001 29.7704C30.0001 29.9984 30.0001 30 29.7618 30C27.8934 30 26.025 30 24.1582 30C23.9102 30 23.9054 29.9968 23.9086 29.7465C23.955 26.215 23.9214 22.6834 23.9342 19.1518C23.9358 18.5938 23.8686 18.0437 23.6783 17.516C23.3023 16.4701 22.5777 15.7781 21.5139 15.4688C20.2438 15.0989 19.0152 15.2344 17.8731 15.912C17.1804 16.3234 16.7629 16.9739 16.4718 17.7105C16.235 18.3068 16.1391 18.9286 16.1391 19.5664C16.1391 22.9576 16.1391 26.3505 16.1391 29.7417C16.1391 29.9129 16.0532 29.999 15.8815 30C14.0339 30 12.1863 30 10.3403 30C10.1643 30 10.0764 29.9097 10.0764 29.729C10.0764 23.2558 10.0764 16.7842 10.0764 10.3109C10.0764 10.2695 10.078 10.228 10.0764 10.1866C10.0732 10.0925 10.1115 10.0383 10.2139 10.0447C10.2443 10.0463 10.2763 10.0447 10.3083 10.0447C12.0567 10.0447 13.8052 10.0447 15.5536 10.0447C15.7136 10.0447 15.7935 10.1255 15.7935 10.287C15.7935 11.081 15.7935 11.8734 15.7935 12.6674C15.7935 12.7233 15.7791 12.7806 15.8207 12.8572L15.8175 12.8556Z" fill="white"/>
<path d="M0.451905 20.0111C0.451905 16.8016 0.451905 13.5921 0.451905 10.3826C0.451905 10.3364 0.456704 10.2886 0.451905 10.2423C0.435908 10.0972 0.490296 10.0303 0.643864 10.043C0.773436 10.0526 0.904608 10.0446 1.03418 10.0446C2.8338 10.0446 4.63341 10.0446 6.43463 10.0446C6.66818 10.0446 6.66978 10.0446 6.66978 10.2774C6.66978 16.7698 6.66978 23.2605 6.66978 29.7529C6.66978 29.9952 6.66498 30 6.42823 30C4.51344 30 2.59865 30 0.685455 30C0.453504 30 0.453504 30 0.453504 29.764C0.453504 26.5131 0.453504 23.2621 0.453504 20.0111H0.451905Z" fill="white"/>
</svg>
